Newaita-dark/.places-mint/32/folder-books.svg

<?xml version="1.0" encoding="UTF-8"?>
<svg xmlns="http://www.w3.org/2000/svg" xmlns:xlink="http://www.w3.org/1999/xlink" width="32px" height="32px" viewBox="0 0 32 32" version="1.1">
<defs>
<linearGradient id="linear0" gradientUnits="userSpaceOnUse" x1="254" y1="233.5" x2="254" y2="254.666672" gradientTransform="matrix(0.062506,0,0,0.062506,-0.00000381506,13.438787)">
<stop offset="0" style="stop-color:rgb(0%,0%,0%);stop-opacity:0.27451;"/>
<stop offset="1" style="stop-color:rgb(0%,0%,0%);stop-opacity:0;"/>
</linearGradient>
<radialGradient id="radial0" gradientUnits="userSpaceOnUse" cx="450.908936" cy="189.579361" fx="450.908936" fy="189.579361" r="21.166656" gradientTransform="matrix(0.00000017417,-0.0781325,-0.140638,-0.000000101539,54.115213,63.595334)">
<stop offset="0" style="stop-color:rgb(0%,0%,0%);stop-opacity:0.313726;"/>
<stop offset="0.222222" style="stop-color:rgb(0%,0%,0%);stop-opacity:0.27451;"/>
<stop offset="1" style="stop-color:rgb(0%,0%,0%);stop-opacity:0;"/>
</radialGradient>
<radialGradient id="radial1" gradientUnits="userSpaceOnUse" cx="450.908936" cy="189.579361" fx="450.908936" fy="189.579361" r="21.166656" gradientTransform="matrix(-0.00000017417,0.0781325,0.140638,0.000000101539,-22.362178,-7.527477)">
<stop offset="0" style="stop-color:rgb(0%,0%,0%);stop-opacity:0.313726;"/>
<stop offset="0.222222" style="stop-color:rgb(0%,0%,0%);stop-opacity:0.27451;"/>
<stop offset="1" style="stop-color:rgb(0%,0%,0%);stop-opacity:0;"/>
</radialGradient>
<radialGradient id="radial2" gradientUnits="userSpaceOnUse" cx="450.908936" cy="189.579361" fx="450.908936" fy="189.579361" r="21.166656" gradientTransform="matrix(-0.00000017417,-0.0781325,0.140638,-0.000000101539,-22.362178,63.595334)">
<stop offset="0" style="stop-color:rgb(0%,0%,0%);stop-opacity:0.313726;"/>
<stop offset="0.222222" style="stop-color:rgb(0%,0%,0%);stop-opacity:0.27451;"/>
<stop offset="1" style="stop-color:rgb(0%,0%,0%);stop-opacity:0;"/>
</radialGradient>
<radialGradient id="radial3" gradientUnits="userSpaceOnUse" cx="450.908936" cy="189.579361" fx="450.908936" fy="189.579361" r="21.166656" gradientTransform="matrix(0.00000017417,0.0781325,-0.140638,0.000000101539,54.115211,-7.527477)">
<stop offset="0" style="stop-color:rgb(0%,0%,0%);stop-opacity:0.313726;"/>
<stop offset="0.222222" style="stop-color:rgb(0%,0%,0%);stop-opacity:0.27451;"/>
<stop offset="1" style="stop-color:rgb(0%,0%,0%);stop-opacity:0;"/>
</radialGradient>
<linearGradient id="linear1" gradientUnits="userSpaceOnUse" x1="254" y1="-147.5" x2="254" y2="-31.083334" gradientTransform="matrix(0.062506,0,0,0.062506,0.00000124975,13.438781)">
<stop offset="0" style="stop-color:rgb(64.313728%,64.313728%,64.313728%);stop-opacity:0;"/>
<stop offset="1" style="stop-color:rgb(100%,100%,100%);stop-opacity:0.196078;"/>
</linearGradient>
<linearGradient id="linear2" gradientUnits="userSpaceOnUse" x1="254" y1="233.5" x2="254" y2="-105.166656" gradientTransform="matrix(0.062506,0,0,0.062506,-0.00000181239,13.438783)">
<stop offset="0" style="stop-color:rgb(34.509805%,34.509805%,34.509805%);stop-opacity:0;"/>
<stop offset="1" style="stop-color:rgb(98.039216%,98.039216%,98.039216%);stop-opacity:0.196078;"/>
</linearGradient>
</defs>
<g id="surface1">
<path style=" stroke:none;fill-rule:nonzero;fill:url(#linear0);" d="M 3.96875 28.035156 L 27.785156 28.035156 L 27.785156 29.355469 L 3.96875 29.355469 Z M 3.96875 28.035156 "/>
<path style=" stroke:none;fill-rule:nonzero;fill:url(#radial0);" d="M 27.785156 28.035156 L 30.429688 28.035156 L 30.429688 26.710938 L 27.785156 26.710938 Z M 27.785156 28.035156 "/>
<path style=" stroke:none;fill-rule:nonzero;fill:url(#radial1);" d="M 3.96875 28.035156 L 1.324219 28.035156 L 1.324219 29.355469 L 3.96875 29.355469 Z M 3.96875 28.035156 "/>
<path style=" stroke:none;fill-rule:nonzero;fill:url(#radial2);" d="M 3.96875 28.035156 L 1.324219 28.035156 L 1.324219 26.710938 L 3.96875 26.710938 Z M 3.96875 28.035156 "/>
<path style=" stroke:none;fill-rule:nonzero;fill:url(#radial3);" d="M 27.785156 28.035156 L 30.429688 28.035156 L 30.429688 29.355469 L 27.785156 29.355469 Z M 27.785156 28.035156 "/>
<path style=" stroke:none;fill-rule:nonzero;fill:rgb(61.176473%,80.000001%,39.607844%);fill-opacity:1;" d="M 7.277344 4.21875 L 28.777344 4.21875 C 29.507812 4.21875 30.097656 4.8125 30.097656 5.542969 L 30.097656 10.503906 C 30.097656 11.234375 29.507812 11.828125 28.777344 11.828125 L 7.277344 11.828125 C 6.546875 11.828125 5.953125 11.234375 5.953125 10.503906 L 5.953125 5.542969 C 5.953125 4.8125 6.546875 4.21875 7.277344 4.21875 Z M 7.277344 4.21875 "/>
<path style=" stroke:none;fill-rule:nonzero;fill:url(#linear1);" d="M 7.277344 4.21875 L 28.777344 4.21875 C 29.507812 4.21875 30.097656 4.8125 30.097656 5.542969 L 30.097656 10.503906 C 30.097656 11.234375 29.507812 11.828125 28.777344 11.828125 L 7.277344 11.828125 C 6.546875 11.828125 5.953125 11.234375 5.953125 10.503906 L 5.953125 5.542969 C 5.953125 4.8125 6.546875 4.21875 7.277344 4.21875 Z M 7.277344 4.21875 "/>
<path style=" stroke:none;fill-rule:nonzero;fill:rgb(90.196079%,90.196079%,90.196079%);fill-opacity:0.392157;" d="M 7.277344 4.308594 C 6.542969 4.308594 5.953125 4.898438 5.953125 5.628906 L 5.953125 5.796875 C 5.953125 5.0625 6.542969 4.472656 7.277344 4.472656 L 28.777344 4.472656 C 29.507812 4.472656 30.097656 5.0625 30.097656 5.796875 L 30.097656 5.628906 C 30.097656 4.898438 29.507812 4.308594 28.777344 4.308594 Z M 7.277344 4.308594 "/>
<path style=" stroke:none;fill-rule:nonzero;fill:rgb(12.941177%,12.941177%,12.941177%);fill-opacity:1;" d="M 7.277344 4.125 C 6.492188 4.125 5.859375 4.757812 5.859375 5.542969 L 5.859375 10.503906 C 5.859375 11.285156 6.492188 11.921875 7.277344 11.921875 L 28.777344 11.921875 C 29.558594 11.921875 30.191406 11.285156 30.191406 10.503906 L 30.191406 5.542969 C 30.191406 4.757812 29.558594 4.125 28.777344 4.125 Z M 7.277344 4.3125 L 28.777344 4.3125 C 29.457031 4.3125 30.003906 4.859375 30.003906 5.542969 L 30.003906 10.503906 C 30.003906 11.1875 29.457031 11.734375 28.777344 11.734375 L 7.277344 11.734375 C 6.59375 11.734375 6.046875 11.1875 6.046875 10.503906 L 6.046875 5.542969 C 6.046875 4.859375 6.59375 4.3125 7.277344 4.3125 Z M 7.277344 4.3125 "/>
<path style=" stroke:none;fill-rule:nonzero;fill:rgb(68.235296%,83.529413%,50.588238%);fill-opacity:1;" d="M 2.644531 6.863281 C 1.914062 6.863281 1.324219 7.457031 1.324219 8.1875 L 1.324219 26.710938 C 1.324219 27.445312 1.914062 28.035156 2.644531 28.035156 L 29.105469 28.035156 C 29.839844 28.035156 30.429688 27.445312 30.429688 26.710938 L 30.429688 10.171875 L 12.570312 10.171875 C 11.835938 10.171875 11.246094 9.582031 11.246094 8.851562 L 11.246094 6.863281 Z M 2.644531 6.863281 "/>
<path style=" stroke:none;fill-rule:nonzero;fill:url(#linear2);" d="M 2.644531 6.863281 C 1.914062 6.863281 1.324219 7.457031 1.324219 8.1875 L 1.324219 26.710938 C 1.324219 27.445312 1.914062 28.035156 2.644531 28.035156 L 29.105469 28.035156 C 29.839844 28.035156 30.429688 27.445312 30.429688 26.710938 L 30.429688 10.171875 L 12.570312 10.171875 C 11.835938 10.171875 11.246094 9.582031 11.246094 8.851562 L 11.246094 6.863281 Z M 2.644531 6.863281 "/>
<path style=" stroke:none;fill-rule:nonzero;fill:rgb(0%,0%,0%);fill-opacity:0.196078;" d="M 2.644531 28.035156 C 1.914062 28.035156 1.324219 27.445312 1.324219 26.710938 L 1.324219 26.546875 C 1.324219 27.277344 1.914062 27.867188 2.644531 27.867188 L 29.105469 27.867188 C 29.839844 27.867188 30.429688 27.277344 30.429688 26.546875 L 30.429688 26.710938 C 30.429688 27.445312 29.839844 28.035156 29.105469 28.035156 Z M 2.644531 28.035156 "/>
<path style=" stroke:none;fill-rule:nonzero;fill:rgb(90.196079%,90.196079%,90.196079%);fill-opacity:0.392157;" d="M 2.644531 6.949219 C 1.914062 6.949219 1.324219 7.539062 1.324219 8.269531 L 1.324219 8.4375 C 1.324219 7.703125 1.914062 7.113281 2.644531 7.113281 L 11.246094 7.113281 L 11.246094 6.949219 Z M 2.644531 6.949219 "/>
<path style=" stroke:none;fill-rule:nonzero;fill:rgb(90.196079%,90.196079%,90.196079%);fill-opacity:0.392157;" d="M 12.484375 10.339844 C 11.753906 10.339844 11.164062 9.75 11.164062 9.015625 L 11.164062 8.851562 C 11.164062 9.582031 11.753906 10.175781 12.484375 10.171875 L 30.429688 10.171875 L 30.429688 10.339844 Z M 12.484375 10.339844 "/>
<path style=" stroke:none;fill-rule:nonzero;fill:rgb(12.941177%,12.941177%,12.941177%);fill-opacity:1;" d="M 2.644531 6.769531 C 1.863281 6.769531 1.230469 7.40625 1.230469 8.1875 L 1.230469 26.710938 C 1.230469 27.496094 1.863281 28.128906 2.644531 28.128906 L 29.105469 28.128906 C 29.890625 28.128906 30.523438 27.496094 30.523438 26.710938 L 30.523438 9.984375 L 12.570312 9.984375 C 11.886719 9.984375 11.339844 9.4375 11.339844 8.757812 L 11.339844 6.769531 Z M 2.644531 6.960938 L 11.152344 6.960938 L 11.152344 8.757812 C 11.152344 9.539062 11.785156 10.171875 12.570312 10.171875 L 30.335938 10.171875 L 30.335938 26.710938 C 30.335938 27.394531 29.789062 27.941406 29.105469 27.941406 L 2.644531 27.941406 C 1.964844 27.941406 1.417969 27.394531 1.417969 26.710938 L 1.417969 8.1875 C 1.417969 7.503906 1.964844 6.960938 2.644531 6.960938 Z M 2.644531 6.960938 "/>
<path style=" stroke:none;fill-rule:nonzero;fill:rgb(54.509807%,76.47059%,29.019609%);fill-opacity:1;" d="M 11.90625 12.792969 C 11.527344 12.792969 11.222656 13.101562 11.222656 13.480469 L 11.222656 21.75 C 11.222656 22.128906 11.527344 22.433594 11.90625 22.433594 C 12.6875 22.433594 13.472656 22.515625 14.105469 22.664062 C 14.742188 22.816406 15.222656 23.058594 15.390625 23.226562 C 15.660156 23.496094 16.09375 23.496094 16.363281 23.226562 C 16.53125 23.058594 17.011719 22.816406 17.644531 22.664062 C 18.28125 22.515625 19.066406 22.433594 19.84375 22.433594 C 20.222656 22.433594 20.53125 22.128906 20.53125 21.75 L 20.53125 13.480469 C 20.53125 13.101562 20.222656 12.792969 19.84375 12.792969 C 18.226562 12.792969 16.722656 13.332031 15.875 13.714844 C 15.03125 13.332031 13.523438 12.792969 11.90625 12.792969 Z M 11.90625 12.792969 "/>
<path style=" stroke:none;fill-rule:nonzero;fill:rgb(0%,0%,0%);fill-opacity:0.235294;" d="M 11.90625 12.863281 C 11.527344 12.863281 11.222656 13.167969 11.222656 13.546875 L 11.222656 13.730469 C 11.222656 13.351562 11.527344 13.042969 11.90625 13.042969 C 13.523438 13.042969 15.03125 13.578125 15.875 13.960938 C 16.722656 13.578125 18.226562 13.042969 19.84375 13.042969 C 20.222656 13.042969 20.53125 13.351562 20.53125 13.730469 L 20.53125 13.546875 C 20.53125 13.167969 20.222656 12.863281 19.84375 12.863281 C 18.226562 12.863281 16.722656 13.398438 15.875 13.78125 C 15.03125 13.398438 13.523438 12.863281 11.90625 12.863281 Z M 11.90625 12.863281 "/>
<path style=" stroke:none;fill-rule:nonzero;fill:rgb(100%,100%,100%);fill-opacity:0.392157;" d="M 11.222656 21.851562 L 11.222656 22.007812 C 11.222656 22.386719 11.527344 22.695312 11.90625 22.695312 C 12.6875 22.695312 13.472656 22.773438 14.105469 22.925781 C 14.742188 23.074219 15.222656 23.316406 15.390625 23.484375 C 15.660156 23.753906 16.09375 23.753906 16.363281 23.484375 C 16.53125 23.316406 17.011719 23.074219 17.644531 22.925781 C 18.28125 22.773438 19.066406 22.695312 19.84375 22.695312 C 20.222656 22.695312 20.53125 22.386719 20.53125 22.007812 L 20.53125 21.851562 C 20.53125 22.230469 20.222656 22.535156 19.84375 22.535156 C 19.066406 22.535156 18.28125 22.617188 17.644531 22.765625 C 17.011719 22.914062 16.53125 23.15625 16.363281 23.328125 C 16.09375 23.59375 15.660156 23.59375 15.390625 23.328125 C 15.222656 23.15625 14.742188 22.914062 14.105469 22.765625 C 13.472656 22.617188 12.6875 22.535156 11.90625 22.535156 C 11.527344 22.535156 11.222656 22.230469 11.222656 21.851562 Z M 11.222656 21.851562 "/>
<path style="fill:none;stroke-width:3;stroke-linecap:round;stroke-linejoin:round;stroke:rgb(12.941177%,12.941177%,12.941177%);stroke-opacity:1;stroke-miterlimit:4;" d="M 190.48181 -10.332045 C 184.419889 -10.332045 179.545354 -5.395016 179.545354 0.666905 L 179.545354 132.966771 C 179.545354 139.028692 184.419889 143.903226 190.48181 143.903226 C 202.980616 143.903226 215.541917 145.215601 225.66595 147.590374 C 235.852477 150.027642 243.539243 153.902272 246.226487 156.589515 C 250.538575 160.901603 257.475412 160.901603 261.787501 156.589515 C 264.474744 153.902272 272.16151 150.027642 282.285543 147.590374 C 292.47207 145.215601 305.033371 143.903226 317.469683 143.903226 C 323.531604 143.903226 328.468633 139.028692 328.468633 132.966771 L 328.468633 0.666905 C 328.468633 -5.395016 323.531604 -10.332045 317.469683 -10.332045 C 291.597154 -10.332045 267.536951 -1.707868 253.975747 4.416547 C 240.477036 -1.707868 216.354339 -10.332045 190.48181 -10.332045 Z M 190.48181 -10.332045 " transform="matrix(0.062506,0,0,0.062506,0,13.438783)"/>
</g>
</svg>

<svg xmlns="http://www.w3.org/2000/svg" width="32" height="32"><defs><linearGradient id="a" gradientUnits="userSpaceOnUse" x1="254" y1="233.5" x2="254" y2="254.667" gradientTransform="matrix(.0625 0 0 .0625 0 13.439)"><stop offset="0" stop-opacity=".275"/><stop offset="1" stop-opacity="0"/></linearGradient><radialGradient id="b" gradientUnits="userSpaceOnUse" cx="450.909" cy="189.579" fx="450.909" fy="189.579" r="21.167" gradientTransform="matrix(0 -.07813 -.14064 0 54.115 63.595)"><stop offset="0" stop-opacity=".314"/><stop offset=".222" stop-opacity=".275"/><stop offset="1" stop-opacity="0"/></radialGradient><radialGradient id="c" gradientUnits="userSpaceOnUse" cx="450.909" cy="189.579" fx="450.909" fy="189.579" r="21.167" gradientTransform="matrix(0 .07813 .14064 0 -22.362 -7.527)"><stop offset="0" stop-opacity=".314"/><stop offset=".222" stop-opacity=".275"/><stop offset="1" stop-opacity="0"/></radialGradient><radialGradient id="d" gradientUnits="userSpaceOnUse" cx="450.909" cy="189.579" fx="450.909" fy="189.579" r="21.167" gradientTransform="matrix(0 -.07813 .14064 0 -22.362 63.595)"><stop offset="0" stop-opacity=".314"/><stop offset=".222" stop-opacity=".275"/><stop offset="1" stop-opacity="0"/></radialGradient><radialGradient id="e" gradientUnits="userSpaceOnUse" cx="450.909" cy="189.579" fx="450.909" fy="189.579" r="21.167" gradientTransform="matrix(0 .07813 -.14064 0 54.115 -7.527)"><stop offset="0" stop-opacity=".314"/><stop offset=".222" stop-opacity=".275"/><stop offset="1" stop-opacity="0"/></radialGradient><linearGradient id="f" gradientUnits="userSpaceOnUse" x1="254" y1="-147.5" x2="254" y2="-31.083" gradientTransform="matrix(.0625 0 0 .0625 0 13.439)"><stop offset="0" stop-color="#a4a4a4" stop-opacity="0"/><stop offset="1" stop-color="#fff" stop-opacity=".196"/></linearGradient><linearGradient id="g" gradientUnits="userSpaceOnUse" x1="254" y1="233.5" x2="254" y2="-105.167" gradientTransform="matrix(.0625 0 0 .0625 0 13.439)"><stop offset="0" stop-color="#585858" stop-opacity="0"/><stop offset="1" stop-color="#fafafa" stop-opacity=".196"/></linearGradient><linearGradient id="h" gradientUnits="userSpaceOnUse" x1="254" y1="-147.5" x2="254" y2="233.5" gradientTransform="matrix(.0625 0 0 .0625 0 13.439)"><stop offset="0" stop-color="#a4a4a4" stop-opacity="0"/><stop offset="1" stop-color="#fff" stop-opacity=".196"/></linearGradient></defs><path d="M3.969 28.035h23.816v1.32H3.97zm0 0" fill="url(#a)"/><path d="M27.785 28.035h2.645v-1.324h-2.645zm0 0" fill="url(#b)"/><path d="M3.969 28.035H1.324v1.32H3.97zm0 0" fill="url(#c)"/><path d="M3.969 28.035H1.324v-1.324H3.97zm0 0" fill="url(#d)"/><path d="M27.785 28.035h2.645v1.32h-2.645zm0 0" fill="url(#e)"/><path d="M7.277 4.219h21.5c.73 0 1.32.593 1.32 1.324v4.96c0 .731-.59 1.325-1.32 1.325h-21.5c-.73 0-1.324-.594-1.324-1.324V5.543c0-.73.594-1.324 1.324-1.324zm0 0" fill="#7cb342"/><path d="M7.277 4.219h21.5c.73 0 1.32.593 1.32 1.324v4.96c0 .731-.59 1.325-1.32 1.325h-21.5c-.73 0-1.324-.594-1.324-1.324V5.543c0-.73.594-1.324 1.324-1.324zm0 0" fill="url(#f)"/><path d="M7.277 4.219a1.32 1.32 0 0 0-1.324 1.324v.164c0-.734.59-1.324 1.324-1.324h21.5c.73 0 1.32.59 1.32 1.324v-.164a1.32 1.32 0 0 0-1.32-1.324zm0 0" fill="#e6e6e6" fill-opacity=".588"/><path d="M7.277 4.125c-.785 0-1.418.633-1.418 1.418v4.96c0 .782.633 1.419 1.418 1.419h21.5c.782 0 1.414-.637 1.414-1.418V5.543c0-.785-.632-1.418-1.414-1.418zm0 .188h21.5c.68 0 1.227.546 1.227 1.23v4.96c0 .684-.547 1.231-1.227 1.231h-21.5c-.683 0-1.23-.546-1.23-1.23V5.543c0-.684.547-1.23 1.23-1.23zm0 0" fill="#212121"/><path d="M2.645 6.863c-.73 0-1.32.594-1.32 1.324v18.524c0 .734.59 1.324 1.32 1.324h26.46a1.32 1.32 0 0 0 1.325-1.324V10.17H12.57a1.32 1.32 0 0 1-1.324-1.32V6.864zm0 0" fill="#9ccc65"/><path d="M2.645 6.867c-.73 0-1.32.59-1.32 1.32v18.524c0 .734.59 1.324 1.32 1.324h26.46a1.32 1.32 0 0 0 1.325-1.324V10.17H12.57a1.32 1.32 0 0 1-1.324-1.32V6.868zm0 0" fill="url(#g)"/><path d="M2.645 28.035c-.73 0-1.32-.59-1.32-1.324v-.164c0 .73.59 1.32 1.32 1.32h26.46a1.32 1.32 0 0 0 1.325-1.32v.164a1.32 1.32 0 0 1-1.325 1.324zm0 0" fill-opacity=".196"/><path d="M2.645 6.863c-.73 0-1.32.594-1.32 1.324v.168c0-.734.59-1.324 1.32-1.324h8.601v-.168zm0 0M12.484 10.254c-.73 0-1.32-.59-1.32-1.32v-.168c0 .734.59 1.324 1.32 1.324H30.43v.164zm0 0" fill="#e6e6e6" fill-opacity=".937"/><path d="M2.645 6.77c-.782 0-1.415.636-1.415 1.418V26.71c0 .785.633 1.418 1.415 1.418h26.46c.786 0 1.418-.633 1.418-1.418V9.984H12.57c-.683 0-1.23-.546-1.23-1.226V6.77zm0 .19h8.507v1.798c0 .781.633 1.414 1.418 1.414h17.766V26.71c0 .684-.547 1.23-1.23 1.23H2.644c-.68 0-1.227-.546-1.227-1.23V8.188c0-.684.547-1.227 1.227-1.227zm0 0" fill="#212121"/><path d="M11.809 12.816c-.309-.007-.563.344-.563.676v8.27c0 .367.293.66.66.664l3.64.66s.145.332.329.332c.184 0 .332-.332.332-.332l3.637-.66c.363-.067.664-.297.664-.664v-8.27c0-.363-.309-.754-.664-.66l-3.637.98a.328.328 0 0 1-.332.329.325.325 0 0 1-.328-.329zm0 0" fill="#7cb342"/><path d="M11.809 12.816c-.309-.007-.563.344-.563.676v8.27c0 .367.293.66.66.664l3.64.66s.145.332.329.332c.184 0 .332-.332.332-.332l3.637-.66c.363-.067.664-.297.664-.664v-8.27c0-.363-.309-.754-.664-.66l-3.637.98a.328.328 0 0 1-.332.329.325.325 0 0 1-.328-.329zm0 0" fill="url(#h)"/><path d="M11.813 12.723a.609.609 0 0 0-.477.246.87.87 0 0 0-.184.523v8.27c0 .418.34.754.754.758l-.015-.004 3.597.656c.012.027.028.066.078.133.067.093.16.207.309.207.148 0 .246-.114.313-.207.046-.067.062-.106.078-.133l3.597-.656a.993.993 0 0 0 .512-.243.683.683 0 0 0 .227-.511v-8.27a.858.858 0 0 0-.223-.566c-.14-.149-.344-.242-.559-.184l-3.707.996v.075a.233.233 0 0 1-.238.234.23.23 0 0 1-.234-.235v-.074l-3.817-1.015zm8.16.187a.405.405 0 0 1 .265.145.672.672 0 0 1 .176.437v8.27c0 .16-.062.281-.168.375a.818.818 0 0 1-.418.195l-3.687.672-.02.043s-.035.074-.086.148c-.055.075-.125.13-.16.13s-.102-.055-.156-.13c-.055-.074-.086-.148-.086-.148l-.024-.043-3.691-.672h-.012a.568.568 0 0 1-.566-.57v-8.27c0-.14.055-.293.144-.406.086-.11.2-.176.317-.172l3.668.973a.418.418 0 0 0 .406.347.42.42 0 0 0 .41-.347l3.586-.965a.45.45 0 0 1 .102-.012zm0 0" fill="#212121"/></svg>
